X: 9112
T: Da South End
R: jig
M: 6/8
K: Amajor
e|cAA dBB|ecc fdd|ecc acA|GBB B2e|
cAA dBB|ecc fdd|efe dcB|cAA A2:|
g|acc eAA|EAA cBA|ecc acA|GBB B2 [1 g|
acc eAA|EAA cBA|Bcd efg|aec ef:|
[2 e|cAA dBB|ecc fdd|efe dcB|cAA A2||

